X: 2
T: The Cliffs Of Moher
R: jig
M: 6/8
L: 1/8
K: Ador
~A3 GED|A2A GED|ECC GCC|EDC EFG|~A3 GED|A2A GED|ECC GCC|EDC ~D3:||:Add d2c|Add cAG|EEC GCC|EDC EFG|Add Ddd-|d2d cAG|EEC GCC|EDC ~D3:|eaa a2g|eaa ged|BGG DGG|BGB dBd|eaa a2g|eaa ged|BGG DGG|BAA ABd:||:ege dBA|ege d2c|BGG DGG|BGB dBd|ege dBA|ege d2c|BGG DGG|1 BAA ABd:|2 BAA A3||with variations on bar 1: |a3 a2g|; bars 3/7: |B/c/BG DGG|; bars 10/13: |f/g/ge d2c|


Tune 1390	Setting 14754

